X: 35015
T: Roland's U-Turn
R: jig
M: 6/8
K: Fmajor
F2F AGF|cAG AGF|G2G A2B|d2d cAG|
F2F AGF|cAG AGF|G2A BAG|AFD D3:|
|:~f3 fcF|FAc fcA|G2G A2B|d2d cAG|
[1 ~f3 fcF|FAc fcA|G2A BAG|AFD D3:|
[2 fef gfg|afd cAF|G2A BAG|AFD D3||
d2e fed|ede A=B^c|d2e fed|g2g gec|
d2e fed|ede A2=B|G2A BAG|AFD D3||
d2e fed|ede A=B^c|d2e fed|afa def|
afd gec|fed cAF|G2A BAG|AFD D3||

